X:1
T:Title
%%score { ( 1 3 5 ) | ( 2 4 ) }
L:1/8
Q:1/4=160
M:4/2
K:A
V:1 treble nm="Grand Piano"
V:3 treble 
V:5 treble 
V:2 bass 
V:4 bass 
V:1
 [=CE]8 [CEA]4 [CE=c]4 | [DG=c]6 [DGB]2 A8 | ^E8 E4 E4 | ^E16 | E8 A4 =c4 | [G=c]6 [GB]2 A8 | %6
w: Arthur~Patton * *||||||
 A8 G4 A4 | B16 | [Ec]8 [EA]4 [=GA]4 | [FA]6 [DF]2 [DF]8 | [Dd]6 [EF]2 [DF]4 [FB]4 | A8 G8 | %12
w: ||||||
 e8 e4 e4 | [Fe]4 [Fd]4 [DFB]8 | [CEA]8 [B,EG]4 [DEB]4 | [CEA]16 | [DFA]8 [CEA]8 |] %17
w: |||||
V:2
 A,,8 A,,4 A,,4 | E,6 E,2 [A,=CE]8 | [A,=C]8 [G,C]4 [G,C]4 | =C8 z8 | =C8 [A,CE]4 [A,CE]4 | %5
 [E,D]6 [E,D]2 [A,=CE]8 | [F,B,^D]8 [F,B,D]4 [F,A,D]4 | [E,E]16 | [A,,A,]8 [C,A,]4 [C,A,]4 | %9
 [D,A,]6 [D,A,]2 [D,A,]8 | [B,,B,]6 [C,^A,]2 [D,B,]4 [D,D]4 | [E,CE]4 [E,B,]4 E4 z4 | %12
 [A,CE]8 [A,B,=G]4 [A,CG]4 | [D,C]4 [D,B,]4 D,8 | E,8 E,4 E,4 | A,,16 | D,8 A,,8 |] %17
V:3
 x16 | x16 | x16 | z8 B,8 | x16 | x16 | x16 | z8 G,8 | x16 | x16 | x16 | z4 z2 G2 z4 D4 | x16 | %13
 x16 | x16 | x16 | x16 |] %17
V:4
 x16 | x16 | x16 | [=G,D]16 | x16 | x16 | x16 | A,8 z8 | x16 | x16 | x16 | z8 E,8 | x16 | x16 | %14
 x16 | x16 | x16 |] %17
V:5
 x16 | x16 | x16 | x16 | x16 | x16 | x16 | x16 | x16 | x16 | x16 | z4 E4 z8 | x16 | x16 | x16 | %15
 x16 | x16 |] %17

